!!!OTL: 1890. Nachahmungs-Spiel.
!!!ARE: Europa, Mitteleuropa, Deutschland, Rheinland, Bonn; Hessen, Odenwald
!!!SCT: E1890
!!!TXL: @@DE
!!!YEM: Copyright 1995, estate of Helmut Schaffrath.
**kern	**text
*ICvox	*
*M2/4	*
*k[]	*
*C:	*
=1	=1
!LO:TX:a:t=Jn ganʒ Deutſchland bekannt.	!
{8cc	A-
8cc	-dam
8cc	hat-
8cc	-te
=2	=2
8b/	ſie-
8a	-ben
4g}	Söhn',
=3	=3
{8a	ſie-
8a	-ben
8b/	Söhn'
8b/	hatt'
=4	=4
4.cc	A-
8cc}	-dam.
=5	=5
{8cc	A-
8cc	-dam
8cc	hat-
8cc	-te
=6	=6
8b/	ſie-
8a	-ben
4g}	Söhn',
=7	=7
{8a	ſie-
8a	-ben
8b/	Söhn'
8b/	hatt'
=8	=8
4cc	A-
8cc}	-dam.
{16ccL	Sie
16ddJ	.
=9	=9
8ee	a-
8ee	-ßen
8ee	nicht,
8ee	ſie
=10	=10
8ff	tran-
8ff	-ken
8ff}	nicht,
{16ffL	ſie
16eeJ	.
=11	=11
8dd	wa-
8dd	-ren
8dd	al-
8dd	-le
=12	=12
8gg	lü-
8gg	-der-
8gg}	-lich
{8ee	und
=13	=13
8cc	machtens
8cc	.
8b	al-
8cc	-le
=14	=14
4dd	ſo
4b	wie
=15	=15
4cc	ich.
4r}	.
==	==
!!!AGN: Kinder - Lied, Nachahmungs - Spiel
!!!ONB: ESAC (Essen Associative Code) Database: ERK3
!!!AMT: simple duple
!!!AIN: vox
!!!EED: Helmut Schaffrath
!!!EEV: 1.0
!!!GTL: Einige Kinderlieder. d) Spiel- und Tanzliedchen.
!!!URL-scan: https://rosdok.uni-rostock.de/mcrviewer/recordIdentifier/rosdok_ppn745177999/iview2/phys_0615.iview2?x=186.1168421123782&y=649.8032567235641&scale=0.7014306698522895&rotation=0&layout=singlePageLayout
!!!ENC: Anna Maria Matuszewska
!!!EEV: 2025/09/01
*-	*-
